svg/color/exo.svg

<?xml version="1.0" encoding="UTF-8" ?>
<!DOCTYPE svg PUBLIC "-//W3C//DTD SVG 1.1//EN" "http://www.w3.org/Graphics/SVG/1.1/DTD/svg11.dtd">
<svg width="250pt" height="250pt" viewBox="0 0 250 250" version="1.1" xmlns="http://www.w3.org/2000/svg">
<g id="#ffffffff">
<path fill="#ffffff" opacity="1.00" d=" M 0.00 0.00 L 250.00 0.00 L 250.00 250.00 L 0.00 250.00 L 0.00 0.00 M 112.35 15.27 C 103.70 15.98 95.33 18.41 87.15 21.22 C 53.61 32.64 27.28 61.83 18.25 95.96 C 14.43 108.60 14.28 121.94 14.86 135.02 C 18.04 175.15 45.26 212.70 82.97 227.22 C 102.71 235.58 124.89 237.14 145.90 233.58 C 156.38 231.70 166.39 227.80 175.96 223.20 C 212.00 205.09 236.37 165.44 235.36 125.00 C 236.09 92.17 220.29 59.69 194.88 39.09 C 180.79 27.56 163.63 20.17 145.90 16.43 C 134.85 14.44 123.51 14.22 112.35 15.27 Z" />
<path fill="#ffffff" opacity="1.00" d=" M 125.14 31.69 C 127.64 36.66 128.90 42.12 130.69 47.36 C 137.62 67.96 144.53 88.57 151.42 109.19 C 146.31 112.41 141.21 115.75 135.59 118.01 C 132.22 107.70 128.87 97.38 125.29 87.14 C 121.44 97.51 118.09 108.05 114.56 118.52 C 109.52 115.37 104.26 112.58 99.14 109.55 C 100.45 103.21 103.19 97.29 104.98 91.09 C 108.93 79.29 112.90 67.50 116.78 55.67 C 119.69 47.72 121.79 39.49 125.14 31.69 Z" />
<path fill="#ffffff" opacity="1.00" d=" M 48.12 168.13 C 63.79 150.91 79.27 133.52 94.89 116.26 C 100.03 119.26 105.25 122.12 110.31 125.26 C 103.56 133.81 95.64 141.37 88.84 149.87 C 99.71 148.24 110.33 145.19 121.22 143.53 C 121.35 149.43 121.25 155.34 121.29 161.24 C 110.57 164.32 99.42 165.58 88.58 168.24 C 72.45 171.09 56.51 175.15 40.32 177.53 C 42.52 174.08 45.43 171.19 48.12 168.13 Z" />
<path fill="#ffffff" opacity="1.00" d=" M 139.94 125.67 C 144.65 122.15 149.91 119.45 155.06 116.67 L 155.84 116.76 C 163.52 124.57 170.34 133.17 177.91 141.08 C 185.70 149.95 193.74 158.61 201.56 167.46 C 204.52 170.78 207.73 173.93 210.20 177.67 C 204.50 177.20 199.01 175.49 193.38 174.58 C 172.08 170.09 150.69 166.04 129.40 161.50 C 129.27 155.56 129.37 149.62 129.30 143.68 C 140.27 145.13 150.94 148.11 161.82 149.98 C 154.44 141.96 147.49 133.54 139.94 125.67 Z" />
</g>
<g id="#ff1616ff">
<path fill="#ff1616" opacity="1.00" d=" M 112.35 15.27 C 123.51 14.22 134.85 14.44 145.90 16.43 C 163.63 20.17 180.79 27.56 194.88 39.09 C 220.29 59.69 236.09 92.17 235.36 125.00 C 236.37 165.44 212.00 205.09 175.96 223.20 C 166.39 227.80 156.38 231.70 145.90 233.58 C 124.89 237.14 102.71 235.58 82.97 227.22 C 45.26 212.70 18.04 175.15 14.86 135.02 C 14.28 121.94 14.43 108.60 18.25 95.96 C 27.28 61.83 53.61 32.64 87.15 21.22 C 95.33 18.41 103.70 15.98 112.35 15.27 M 125.14 31.69 C 121.79 39.49 119.69 47.72 116.78 55.67 C 112.90 67.50 108.93 79.29 104.98 91.09 C 103.19 97.29 100.45 103.21 99.14 109.55 C 104.26 112.58 109.52 115.37 114.56 118.52 C 118.09 108.05 121.44 97.51 125.29 87.14 C 128.87 97.38 132.22 107.70 135.59 118.01 C 141.21 115.75 146.31 112.41 151.42 109.19 C 144.53 88.57 137.62 67.96 130.69 47.36 C 128.90 42.12 127.64 36.66 125.14 31.69 M 48.12 168.13 C 45.43 171.19 42.52 174.08 40.32 177.53 C 56.51 175.15 72.45 171.09 88.58 168.24 C 99.42 165.58 110.57 164.32 121.29 161.24 C 121.25 155.34 121.35 149.43 121.22 143.53 C 110.33 145.19 99.71 148.24 88.84 149.87 C 95.64 141.37 103.56 133.81 110.31 125.26 C 105.25 122.12 100.03 119.26 94.89 116.26 C 79.27 133.52 63.79 150.91 48.12 168.13 M 139.94 125.67 C 147.49 133.54 154.44 141.96 161.82 149.98 C 150.94 148.11 140.27 145.13 129.30 143.68 C 129.37 149.62 129.27 155.56 129.40 161.50 C 150.69 166.04 172.08 170.09 193.38 174.58 C 199.01 175.49 204.50 177.20 210.20 177.67 C 207.73 173.93 204.52 170.78 201.56 167.46 C 193.74 158.61 185.70 149.95 177.91 141.08 C 170.34 133.17 163.52 124.57 155.84 116.76 L 155.06 116.67 C 149.91 119.45 144.65 122.15 139.94 125.67 Z" />
</g>
</svg>

<?xml version="1.0" encoding="utf-8"?>
<!-- Generator: Adobe Illustrator 26.0.3, SVG Export Plug-In . SVG Version: 6.00 Build 0)  -->
<svg version="1.1" id="Layer_1" xmlns="http://www.w3.org/2000/svg" xmlns:xlink="http://www.w3.org/1999/xlink" x="0px" y="0px"
	 viewBox="0 0 250 250" style="enable-background:new 0 0 250 250;" xml:space="preserve">
<style type="text/css">
	.st0{fill:#FFFFFF;}
	.st1{fill:#FF1616;}
</style>
<g id="_x23_ffffffff">
	<path class="st0" d="M125.1,31.7c2.5,5,3.8,10.4,5.6,15.7c6.9,20.6,13.8,41.2,20.7,61.8c-5.1,3.2-10.2,6.6-15.8,8.8
		c-3.4-10.3-6.7-20.6-10.3-30.9c-3.8,10.4-7.2,20.9-10.7,31.4c-5-3.1-10.3-5.9-15.4-9c1.3-6.3,4.1-12.3,5.8-18.5
		c3.9-11.8,7.9-23.6,11.8-35.4C119.7,47.7,121.8,39.5,125.1,31.7z"/>
	<path class="st0" d="M48.1,168.1c15.7-17.2,31.1-34.6,46.8-51.9c5.1,3,10.4,5.9,15.4,9c-6.8,8.5-14.7,16.1-21.5,24.6
		c10.9-1.6,21.5-4.7,32.4-6.3c0.1,5.9,0,11.8,0.1,17.7c-10.7,3.1-21.9,4.3-32.7,7c-16.1,2.8-32.1,6.9-48.3,9.3
		C42.5,174.1,45.4,171.2,48.1,168.1z"/>
	<path class="st0" d="M139.9,125.7c4.7-3.5,10-6.2,15.1-9l0.8,0.1c7.7,7.8,14.5,16.4,22.1,24.3c7.8,8.9,15.8,17.5,23.6,26.4
		c3,3.3,6.2,6.5,8.6,10.2c-5.7-0.5-11.2-2.2-16.8-3.1c-21.3-4.5-42.7-8.5-64-13.1c-0.1-5.9,0-11.9-0.1-17.8
		c11,1.5,21.6,4.4,32.5,6.3C154.4,142,147.5,133.5,139.9,125.7z"/>
</g>
<g id="_x23_ff1616ff">
	<path class="st1" d="M112.3,15.3c11.2-1.1,22.5-0.8,33.5,1.2c17.7,3.7,34.9,11.1,49,22.7c25.4,20.6,41.2,53.1,40.5,85.9
		c1,40.4-23.4,80.1-59.4,98.2c-9.6,4.6-19.6,8.5-30.1,10.4c-21,3.6-43.2,2-62.9-6.4C45.3,212.7,18,175.1,14.9,135
		c-0.6-13.1-0.4-26.4,3.4-39.1c9-34.1,35.4-63.3,68.9-74.7C95.3,18.4,103.7,16,112.3,15.3 M125.1,31.7c-3.3,7.8-5.4,16-8.4,24
		c-3.9,11.8-7.8,23.6-11.8,35.4c-1.8,6.2-4.5,12.1-5.8,18.5c5.1,3,10.4,5.8,15.4,9c3.5-10.5,6.9-21,10.7-31.4
		c3.6,10.2,6.9,20.6,10.3,30.9c5.6-2.3,10.7-5.6,15.8-8.8c-6.9-20.6-13.8-41.2-20.7-61.8C128.9,42.1,127.6,36.7,125.1,31.7
		 M48.1,168.1c-2.7,3.1-5.6,5.9-7.8,9.4c16.2-2.4,32.1-6.4,48.3-9.3c10.8-2.7,22-3.9,32.7-7c0-5.9,0.1-11.8-0.1-17.7
		c-10.9,1.7-21.5,4.7-32.4,6.3c6.8-8.5,14.7-16.1,21.5-24.6c-5.1-3.1-10.3-6-15.4-9C79.3,133.5,63.8,150.9,48.1,168.1 M139.9,125.7
		c7.6,7.9,14.5,16.3,21.9,24.3c-10.9-1.9-21.6-4.8-32.5-6.3c0.1,5.9,0,11.9,0.1,17.8c21.3,4.5,42.7,8.6,64,13.1
		c5.6,0.9,11.1,2.6,16.8,3.1c-2.5-3.7-5.7-6.9-8.6-10.2c-7.8-8.9-15.9-17.5-23.6-26.4c-7.6-7.9-14.4-16.5-22.1-24.3l-0.8-0.1
		C149.9,119.4,144.6,122.2,139.9,125.7z"/>
</g>
</svg>
